X: 40284
T: Together Again
R: jig
M: 6/8
K: Fmajor
E|FGF c2c|dcA c2c|dfd cAc|dfF BAG|
FGF c2c|dcA c2c|dfF cBA|GFE F2:|
|:G|A2A- AGA|B2B- BAG|A2A- AGF|GAc c3|
A2A- AGA|B2B- BAG|AGF GFE|CFE F2:|

